data/yesteryear.svg

<svg width="49.588" height="20.542" viewBox="0 0 49.588 20.542" xmlns="http://www.w3.org/2000/svg"><path transform="translate(0 13.679) scale(.0068359 -.0068359)" d="m590-1004q-32 32-59.5 61t-54.5 57-55.5 57-60.5 61q42 124 90 249.5t107 263.5 132 293 166 339q-46-68-85.5-119t-68.5-86q-34-40-64-70-76-73-135.5-126t-106-87.5-81.5-51.5-62-17q-21 0-44.5 14.5t-46 36-42.5 45.5-35 43q-25 32-28 83t-3 126q0 115 19.5 241t55.5 253.5 87 254 114 243 136 218.5 153 183q21-22 48-50.5t54.5-58.5 53-59.5 43.5-51.5q-85-77-159.5-173.5t-136.5-206-111-228-82.5-240-52-242.5-19.5-234q111 56 204 136t170.5 174.5 141 198.5 115 210 92 209 73.5 194 58.5 166 46.5 125q10-15 27-37t36.5-47.5 40-51.5 38-48.5 30.5-39 17-22.5q-53-126-104.5-251.5t-105.5-265-112-301.5-124.5-363-143-449-166.5-558z"/><path transform="translate(8.8457 13.679) scale(.0068359 -.0068359)" d="m647 246q-92-90-173.5-151t-155.5-98-141.5-53-131.5-16q-27 0-60 20t-61.5 48.5-47.5 59.5-19 53q0 82 22.5 150.5t59.5 123.5 84.5 97 99 70 102.5 42 94 14q31 0 61.5-18t55.5-44 40.5-54.5 15.5-49.5q0-34-28.5-69.5t-80.5-72.5-125-75.5-161-77.5q-3-24-3-47 0-31 13.5-42t50.5-11q66 0 124.5 22t112.5 57 104 80 99 91zm-352 250q-20 0-44-21.5t-48-56.5-46-80.5-38-94.5q37 24 72.5 51t63.5 56.5 45 60.5 17 62q0 9-5.5 16t-16.5 7z"/><path transform="translate(13.255 13.679) scale(.0068359 -.0068359)" d="m-66 276q23 22 52.5 50t59 61 55 71 40.5 82q4 23 12.5 48.5t19 46.5 20.5 35 18 14q12-7 36-26.5t48-41.5 42.5-40.5 18.5-22.5q-12-46-11.5-83t6-73 12-76.5 6.5-93.5q0-32-10.5-73.5t-36.5-74.5q51 30 101 67.5t89 70.5q46 39 88 78l45-49q-33-31-71.5-66t-80-69-84.5-65-85-55-81-38-73-14q-29 0-64 14t-66 34-54 42-27 37q0 2 4 8.5t9.5 13.5 11 12.5 8.5 5.5q6 0 24-9t60-9q23 0 39.5 12t27.5 32 16 46 5 55q0 42-4 81.5t-9 76.5q-17-20-39-42t-44.5-43.5-45-42-40.5-36.5l-48 49z"/><path transform="translate(17.664 13.679) scale(.0068359 -.0068359)" d="m51-55q-17 0-44.5 15.5t-53.5 38-45 46.5-19 41q0 30 16.5 95t43.5 148.5 61.5 178.5 69.5 186h-142q-1 0-1 2 0 6 4.5 17.5t11 24 15 23 16.5 13.5l130 6q28 68 53.5 125.5t45.5 98.5q5 11 10.5 23.5t16 25 28 26 47.5 27.5q22 11 53.5 24t62 24 55.5 18.5 36 7.5q10 0 10-4v-2q0-1-2-5-6-10-22-43.5t-39.5-84-52-115-58.5-136.5l240 9q10 0 6-12t-15-28-25.5-33-24.5-26q-2-2-8-4t-15-2h-198q-36-87-69-176t-59-169-41.5-147-15.5-110q0-6 6-6 11 0 33 12.5t49.5 32.5 58.5 44 59 47.5 50.5 43 34.5 29.5q9-9 21.5-23t23.5-26q-22-22-55-53.5t-71.5-64.5-80-66-81-59-73.5-42-57-16z"/><path transform="translate(20.87 13.679) scale(.0068359 -.0068359)" d="m647 246q-92-90-173.5-151t-155.5-98-141.5-53-131.5-16q-27 0-60 20t-61.5 48.5-47.5 59.5-19 53q0 82 22.5 150.5t59.5 123.5 84.5 97 99 70 102.5 42 94 14q31 0 61.5-18t55.5-44 40.5-54.5 15.5-49.5q0-34-28.5-69.5t-80.5-72.5-125-75.5-161-77.5q-3-24-3-47 0-31 13.5-42t50.5-11q66 0 124.5 22t112.5 57 104 80 99 91zm-352 250q-20 0-44-21.5t-48-56.5-46-80.5-38-94.5q37 24 72.5 51t63.5 56.5 45 60.5 17 62q0 9-5.5 16t-16.5 7z"/><path transform="translate(25.279 13.679) scale(.0068359 -.0068359)" d="m406 414q-13-39-32.5-89t-37.5-98-30.5-87-12.5-56q0-6 6-6 11 0 33 13t50.5 34 59.5 46 59.5 49.5 51.5 44.5 35 30q9-9 21.5-23t23.5-26q-22-22-55-53.5t-71.5-64.5-80-66-81-59-73.5-42-57-16q-15 0-38 10.5t-44 26-36 34.5-15 37q15 67 30 117t28 85.5 23 57.5 15 33q-12 5-23 11t-22 12q-16-17-35.5-36t-39.5-38-40-37-36-33l-48 49q26 25 62.5 60.5t71.5 71.5q-25 15-45 28.5t-34 24.5q-17 12-30 22-6 3-6 13 0 11 8.5 31.5t21.5 44 28 48 29 44.5 24.5 32.5 13.5 12.5q2 0 13.5-5t24.5-11.5 24-14.5 14-14q1-5 2-21t2-39q39-20 80-45.5t75-48.5q40-26 76-53 13-8 16.5-20t0.5-21z"/><path transform="translate(29.606 13.679) scale(.0068359 -.0068359)" d="m805 248q-90-81-185-153t-190-139q-14-42-32-89t-44-107q-29-66-66-129t-78.5-118.5-85.5-101.5-86.5-79.5-82-52-72.5-18.5q-16 0-39 12t-44 30.5-35.5 39.5-14.5 39q0 63 34 123.5t93.5 121.5 140 123.5 173.5 128.5q29 77 56.5 160.5t53.5 165.5q-43-55-83-96t-74-69.5-59-46-38-26.5q-8-5-19-7.5t-20-2.5q-19 0-42 11.5t-42.5 29-33 38.5-13.5 40q0 22 14.5 70.5t39 117.5 57.5 155 71 183q2 5 3.5 4.5t5.5-0.5q19-3 52-15.5t64.5-27.5 54.5-28.5 23-18.5q-3-7-15.5-33t-29-62.5-35-79-34-81.5-25.5-70.5-10-46.5q0-4 4-4 7 0 30.5 18t58.5 57 79 99.5 93 145.5q20 66 33 105.5t17 39.5q6 0 31-15t53-35.5 50-41 22-31.5q0-5-1-9t-3-9q-23-70-40-126.5t-30.5-103.5-24-86.5-20.5-76.5q75 54 149 110.5t146 118.5zm-928-877q18 0 50 34.5t69 88.5 74.5 120.5 66.5 130.5q-38-32-85-70t-88-83-69-96.5-28-109.5q0-15 10-15z"/><path transform="translate(35.068 13.679) scale(.0068359 -.0068359)" d="m647 246q-92-90-173.5-151t-155.5-98-141.5-53-131.5-16q-27 0-60 20t-61.5 48.5-47.5 59.5-19 53q0 82 22.5 150.5t59.5 123.5 84.5 97 99 70 102.5 42 94 14q31 0 61.5-18t55.5-44 40.5-54.5 15.5-49.5q0-34-28.5-69.5t-80.5-72.5-125-75.5-161-77.5q-3-24-3-47 0-31 13.5-42t50.5-11q66 0 124.5 22t112.5 57 104 80 99 91zm-352 250q-20 0-44-21.5t-48-56.5-46-80.5-38-94.5q37 24 72.5 51t63.5 56.5 45 60.5 17 62q0 9-5.5 16t-16.5 7z"/><path transform="translate(39.478 13.679) scale(.0068359 -.0068359)" d="m516 88q0-6 6-6 9 0 30 13t48 33 57.5 45 58.5 49 50.5 44 34.5 31q9-9 22.5-24t24.5-27q-24-22-57.5-53.5t-72-65.5-79.5-67.5-80-59.5-74-42.5-61-16.5q-18 0-39.5 7t-39.5 19.5-30 29.5-12 38q0 8-0.5 19.5t1.5 30 8 45 18 65.5q-33-35-77.5-73t-93.5-72-98.5-61.5-91.5-41.5q-5-2-8-2t-6 0q-10 0-26.5 10t-32.5 26.5-27.5 37.5-11.5 42q0 6 6 40t28.5 86.5 66.5 118 120 134.5q39 35 84 66 38 26 87 53t103 43q2 0 3.5 1t4.5-1q12-4 28.5-12.5t33-18 29-19 16.5-15.5q1-2 0-3l-2-2q-45-24-85-53.5t-71-55.5q-36-31-67-61-73-72-101-124.5t-28-75.5q0-17 14-17t35.5 11.5 48.5 31 59.5 46 67.5 55.5q31 25 60 54 25 24 52 55t46 63q0 1 1 2t3 0q11-8 25-26.5t26-40.5 20.5-42.5 8.5-31.5q-23-47-35.5-85.5t-19-67.5-8-49.5-1.5-31.5z"/><path transform="translate(45.261 13.679) scale(.0068359 -.0068359)" d="m406 414q-13-39-32.5-89t-37.5-98-30.5-87-12.5-56q0-6 6-6 11 0 33 13t50.5 34 59.5 46 59.5 49.5 51.5 44.5 35 30q9-9 21.5-23t23.5-26q-22-22-55-53.5t-71.5-64.5-80-66-81-59-73.5-42-57-16q-15 0-38 10.5t-44 26-36 34.5-15 37q15 67 30 117t28 85.5 23 57.5 15 33q-12 5-23 11t-22 12q-16-17-35.5-36t-39.5-38-40-37-36-33l-48 49q26 25 62.5 60.5t71.5 71.5q-25 15-45 28.5t-34 24.5q-17 12-30 22-6 3-6 13 0 11 8.5 31.5t21.5 44 28 48 29 44.5 24.5 32.5 13.5 12.5q2 0 13.5-5t24.5-11.5 24-14.5 14-14q1-5 2-21t2-39q39-20 80-45.5t75-48.5q40-26 76-53 13-8 16.5-20t0.5-21z"/></svg>

<?xml version="1.0" encoding="utf-8" ?>
<svg baseProfile="tiny" height="100%" version="1.2" width="100%" xmlns="http://www.w3.org/2000/svg" xmlns:ev="http://www.w3.org/2001/xml-events" xmlns:xlink="http://www.w3.org/1999/xlink"><defs /><g><path d="M590 -1004Q558 -972 530.5 -943.0Q503 -914 476.0 -886.0Q449 -858 420.5 -829.0Q392 -800 360 -768Q402 -644 450.0 -518.5Q498 -393 557.0 -255.0Q616 -117 689.0 38.0Q762 193 855 377Q809 309 769.5 258.0Q730 207 701 172Q667 132 637 102Q561 29 501.5 -24.0Q442 -77 395.5 -111.5Q349 -146 314.0 -163.0Q279 -180 252 -180Q231 -180 207.5 -165.5Q184 -151 161.5 -129.5Q139 -108 119.0 -84.0Q99 -60 84 -41Q59 -9 56.0 42.0Q53 93 53 168Q53 283 72.5 409.0Q92 535 128.0 662.5Q164 790 215.0 916.5Q266 1043 329.0 1159.5Q392 1276 465.0 1378.0Q538 1480 618 1561Q639 1539 666.0 1510.5Q693 1482 720.5 1452.0Q748 1422 773.5 1392.5Q799 1363 817 1341Q732 1264 657.5 1167.5Q583 1071 521.0 961.5Q459 852 410.0 733.5Q361 615 327.5 493.5Q294 372 275.5 251.0Q257 130 256 17Q367 73 460.0 153.0Q553 233 630.5 327.5Q708 422 771.5 526.0Q835 630 886.5 736.0Q938 842 978.5 945.0Q1019 1048 1052.0 1139.0Q1085 1230 1110.5 1305.0Q1136 1380 1157 1430Q1167 1415 1184.0 1393.0Q1201 1371 1220.5 1345.5Q1240 1320 1260.5 1294.0Q1281 1268 1298.5 1245.5Q1316 1223 1329.0 1206.5Q1342 1190 1346 1184Q1293 1058 1241.5 932.5Q1190 807 1136.0 667.5Q1082 528 1024.0 366.0Q966 204 899.5 3.0Q833 -198 756.5 -446.0Q680 -694 590 -1004Z" transform="translate(0.0, 72) scale(0.03515625, -0.03515625)" /><path d="M647 246Q555 156 473.5 95.0Q392 34 318.0 -3.0Q244 -40 176.5 -56.0Q109 -72 45 -72Q18 -72 -15.0 -52.0Q-48 -32 -76.5 -3.5Q-105 25 -124.0 56.0Q-143 87 -143 109Q-143 191 -120.5 259.5Q-98 328 -61.0 383.0Q-24 438 23.5 480.0Q71 522 122.5 550.0Q174 578 225.0 592.0Q276 606 319 606Q350 606 380.5 588.0Q411 570 436.0 544.0Q461 518 476.5 489.5Q492 461 492 440Q492 406 463.5 370.5Q435 335 383.0 298.0Q331 261 258.0 222.5Q185 184 97 145Q94 121 94 98Q94 67 107.5 56.0Q121 45 158 45Q224 45 282.5 67.0Q341 89 395.0 124.0Q449 159 499.0 204.0Q549 249 598 295ZM295 496Q275 496 251.0 474.5Q227 453 203.0 418.0Q179 383 157.0 337.5Q135 292 119 243Q156 267 191.5 294.0Q227 321 255.0 350.5Q283 380 300.0 411.0Q317 442 317 473Q317 482 311.5 489.0Q306 496 295 496Z" transform="translate(45.4921875, 72) scale(0.03515625, -0.03515625)" /><path d="M-66 276Q-43 298 -13.5 326.0Q16 354 45.5 387.0Q75 420 100.5 458.0Q126 496 141 540Q145 563 153.5 588.5Q162 614 172.5 635.0Q183 656 193.0 670.0Q203 684 211 684Q223 677 247.0 657.5Q271 638 295.0 616.0Q319 594 337.5 575.5Q356 557 356 553Q344 507 344.5 470.0Q345 433 350.5 397.0Q356 361 362.5 320.5Q369 280 369 227Q369 195 358.5 153.5Q348 112 322 79Q373 109 423.0 146.5Q473 184 512 217Q558 256 600 295L645 246Q612 215 573.5 180.0Q535 145 493.5 111.0Q452 77 409.0 46.0Q366 15 324.0 -9.0Q282 -33 243.0 -47.0Q204 -61 170 -61Q141 -61 106.0 -47.0Q71 -33 40.0 -13.0Q9 7 -14.0 29.0Q-37 51 -41 66Q-41 68 -37.0 74.5Q-33 81 -27.5 88.0Q-22 95 -16.5 100.5Q-11 106 -8 106Q-2 106 16.0 97.0Q34 88 76 88Q99 88 115.5 100.0Q132 112 143.0 132.0Q154 152 159.0 178.0Q164 204 164 233Q164 275 160.0 314.5Q156 354 151 391Q134 371 112.0 349.0Q90 327 67.5 305.5Q45 284 22.5 263.5Q0 243 -18 227L-66 276Z" transform="translate(68.16796875, 72) scale(0.03515625, -0.03515625)" /><path d="M51 -55Q34 -55 6.5 -39.5Q-21 -24 -47.0 -1.5Q-73 21 -92.0 45.0Q-111 69 -111 86Q-111 116 -94.5 181.0Q-78 246 -51.0 329.5Q-24 413 10.5 508.0Q45 603 80 694H-61H-62Q-63 694 -63 696Q-63 702 -58.5 713.5Q-54 725 -47.5 737.5Q-41 750 -32.5 760.5Q-24 771 -16 774L114 780Q142 848 167.5 905.5Q193 963 213 1004Q218 1015 223.5 1027.5Q229 1040 239.5 1052.5Q250 1065 267.5 1078.5Q285 1092 315 1106Q337 1117 368.5 1130.0Q400 1143 430.5 1154.0Q461 1165 486.0 1172.5Q511 1180 522 1180Q532 1180 532 1176V1174Q532 1173 530 1169Q524 1159 508.0 1125.5Q492 1092 468.5 1041.5Q445 991 416.5 926.5Q388 862 358 790L598 799Q608 799 604.0 787.0Q600 775 589.0 759.0Q578 743 563.5 726.0Q549 709 539 700Q537 698 531.0 696.0Q525 694 516 694H318Q282 607 249.0 518.0Q216 429 190.0 349.0Q164 269 148.5 202.0Q133 135 133 92Q133 86 139 86Q150 86 172.0 98.5Q194 111 221.5 131.0Q249 151 280.0 175.0Q311 199 339.0 222.5Q367 246 389.5 265.5Q412 285 424 295Q433 286 445.5 272.0Q458 258 469 246Q447 224 414.0 192.5Q381 161 342.5 128.0Q304 95 262.5 62.0Q221 29 181.5 3.0Q142 -23 108.0 -39.0Q74 -55 51 -55Z" transform="translate(90.84375, 72) scale(0.03515625, -0.03515625)" /><path d="M647 246Q555 156 473.5 95.0Q392 34 318.0 -3.0Q244 -40 176.5 -56.0Q109 -72 45 -72Q18 -72 -15.0 -52.0Q-48 -32 -76.5 -3.5Q-105 25 -124.0 56.0Q-143 87 -143 109Q-143 191 -120.5 259.5Q-98 328 -61.0 383.0Q-24 438 23.5 480.0Q71 522 122.5 550.0Q174 578 225.0 592.0Q276 606 319 606Q350 606 380.5 588.0Q411 570 436.0 544.0Q461 518 476.5 489.5Q492 461 492 440Q492 406 463.5 370.5Q435 335 383.0 298.0Q331 261 258.0 222.5Q185 184 97 145Q94 121 94 98Q94 67 107.5 56.0Q121 45 158 45Q224 45 282.5 67.0Q341 89 395.0 124.0Q449 159 499.0 204.0Q549 249 598 295ZM295 496Q275 496 251.0 474.5Q227 453 203.0 418.0Q179 383 157.0 337.5Q135 292 119 243Q156 267 191.5 294.0Q227 321 255.0 350.5Q283 380 300.0 411.0Q317 442 317 473Q317 482 311.5 489.0Q306 496 295 496Z" transform="translate(107.33203125, 72) scale(0.03515625, -0.03515625)" /><path d="M406 414Q393 375 373.5 325.0Q354 275 336.0 227.0Q318 179 305.5 140.0Q293 101 293 84Q293 78 299 78Q310 78 332.0 91.0Q354 104 382.5 125.0Q411 146 442.0 171.0Q473 196 501.5 220.5Q530 245 553.0 265.0Q576 285 588 295Q597 286 609.5 272.0Q622 258 633 246Q611 224 578.0 192.5Q545 161 506.5 128.0Q468 95 426.5 62.0Q385 29 345.5 3.0Q306 -23 272.0 -39.0Q238 -55 215 -55Q200 -55 177.0 -44.5Q154 -34 133.0 -18.5Q112 -3 97.0 16.0Q82 35 82 53Q97 120 112.0 170.0Q127 220 140.0 255.5Q153 291 163.0 313.0Q173 335 178 346Q166 351 155.0 357.0Q144 363 133 369Q117 352 97.5 333.0Q78 314 58.0 295.0Q38 276 18.0 258.0Q-2 240 -18 225L-66 274Q-40 299 -3.5 334.5Q33 370 68 406Q43 421 23.0 434.5Q3 448 -11 459Q-28 471 -41 481Q-47 484 -47 494Q-47 505 -38.5 525.5Q-30 546 -17.0 569.5Q-4 593 11.0 617.5Q26 642 40.0 662.0Q54 682 64.5 694.5Q75 707 78 707Q80 707 91.5 702.0Q103 697 116.0 690.5Q129 684 140.0 676.0Q151 668 154 662Q155 657 156.0 641.0Q157 625 158 602Q197 582 238.0 556.5Q279 531 313 508Q353 482 389 455Q402 447 405.5 435.0Q409 423 406 414Z" transform="translate(130.0078125, 72) scale(0.03515625, -0.03515625)" /><path d="M805 248Q715 167 620.0 95.0Q525 23 430 -44Q416 -86 398.0 -133.0Q380 -180 354 -240Q325 -306 288.0 -369.0Q251 -432 209.5 -487.5Q168 -543 124.0 -589.0Q80 -635 37.5 -668.5Q-5 -702 -44.5 -720.5Q-84 -739 -117 -739Q-133 -739 -156.0 -727.0Q-179 -715 -200.0 -696.5Q-221 -678 -235.5 -657.0Q-250 -636 -250 -618Q-250 -555 -216.0 -494.5Q-182 -434 -122.5 -373.0Q-63 -312 17.5 -249.5Q98 -187 191 -121Q220 -44 247.5 39.5Q275 123 301 205Q258 150 218.0 109.0Q178 68 144.0 39.5Q110 11 85.0 -6.5Q60 -24 47 -33Q39 -38 28.0 -40.5Q17 -43 8 -43Q-11 -43 -34.0 -31.5Q-57 -20 -76.5 -2.5Q-96 15 -109.5 36.0Q-123 57 -123 76Q-123 98 -108.5 146.5Q-94 195 -69.5 264.0Q-45 333 -12.0 419.0Q21 505 59 602Q61 607 62.5 606.5Q64 606 68 606Q87 603 120.0 590.5Q153 578 184.5 563.0Q216 548 239.0 534.5Q262 521 262 516Q259 509 246.5 483.0Q234 457 217.5 420.5Q201 384 182.5 341.5Q164 299 148.5 260.0Q133 221 123.0 189.5Q113 158 113 143Q113 139 117 139Q124 139 147.5 157.0Q171 175 206.0 214.0Q241 253 285.0 313.5Q329 374 378 459Q398 525 411.0 564.5Q424 604 428 604Q434 604 459.0 589.0Q484 574 512.0 553.5Q540 533 562.0 512.5Q584 492 584 481Q584 476 583.0 472.0Q582 468 580 463Q557 393 540.0 336.5Q523 280 509.5 233.0Q496 186 485.5 146.5Q475 107 465 70Q540 124 614.0 180.5Q688 237 760 299ZM-123 -629Q-105 -629 -73.0 -594.5Q-41 -560 -4.0 -506.0Q33 -452 70.5 -385.5Q108 -319 137 -255Q99 -287 52.0 -325.0Q5 -363 -36.0 -408.0Q-77 -453 -105.0 -504.5Q-133 -556 -133 -614Q-133 -629 -123 -629Z" transform="translate(152.26171875, 72) scale(0.03515625, -0.03515625)" /><path d="M647 246Q555 156 473.5 95.0Q392 34 318.0 -3.0Q244 -40 176.5 -56.0Q109 -72 45 -72Q18 -72 -15.0 -52.0Q-48 -32 -76.5 -3.5Q-105 25 -124.0 56.0Q-143 87 -143 109Q-143 191 -120.5 259.5Q-98 328 -61.0 383.0Q-24 438 23.5 480.0Q71 522 122.5 550.0Q174 578 225.0 592.0Q276 606 319 606Q350 606 380.5 588.0Q411 570 436.0 544.0Q461 518 476.5 489.5Q492 461 492 440Q492 406 463.5 370.5Q435 335 383.0 298.0Q331 261 258.0 222.5Q185 184 97 145Q94 121 94 98Q94 67 107.5 56.0Q121 45 158 45Q224 45 282.5 67.0Q341 89 395.0 124.0Q449 159 499.0 204.0Q549 249 598 295ZM295 496Q275 496 251.0 474.5Q227 453 203.0 418.0Q179 383 157.0 337.5Q135 292 119 243Q156 267 191.5 294.0Q227 321 255.0 350.5Q283 380 300.0 411.0Q317 442 317 473Q317 482 311.5 489.0Q306 496 295 496Z" transform="translate(180.3515625, 72) scale(0.03515625, -0.03515625)" /><path d="M516 88Q516 82 522 82Q531 82 552.0 95.0Q573 108 600.0 128.0Q627 148 657.5 173.0Q688 198 716.0 222.0Q744 246 766.5 266.0Q789 286 801 297Q810 288 823.5 273.0Q837 258 848 246Q824 224 790.5 192.5Q757 161 718.5 127.0Q680 93 639.0 59.5Q598 26 559.0 0.0Q520 -26 485.0 -42.5Q450 -59 424 -59Q406 -59 384.5 -52.0Q363 -45 345.0 -32.5Q327 -20 315.0 -3.0Q303 14 303 35Q303 43 302.5 54.5Q302 66 304.0 84.5Q306 103 312.0 129.5Q318 156 330 195Q297 160 252.5 122.0Q208 84 159.0 50.0Q110 16 60.5 -11.5Q11 -39 -31 -53Q-36 -55 -39.0 -55.0Q-42 -55 -45 -55Q-55 -55 -71.5 -45.0Q-88 -35 -104.0 -18.5Q-120 -2 -131.5 19.0Q-143 40 -143 61Q-143 67 -137.0 101.0Q-131 135 -108.5 187.5Q-86 240 -42.0 305.5Q2 371 78 440Q117 475 162 506Q200 532 249.0 559.0Q298 586 352 602Q354 602 355.5 603.0Q357 604 360 602Q372 598 388.5 589.5Q405 581 421.5 571.5Q438 562 450.5 552.5Q463 543 467 537Q468 535 467 534L465 532Q420 508 380.0 478.5Q340 449 309 423Q273 392 242 362Q169 290 141.0 237.5Q113 185 113 162Q113 145 127 145Q141 145 162.5 156.5Q184 168 211.0 187.5Q238 207 270.5 233.5Q303 260 338 289Q369 314 398 343Q423 367 450.0 398.0Q477 429 496 461Q496 462 497 463Q498 464 500 463Q511 455 525.0 436.5Q539 418 551.0 396.0Q563 374 571.5 353.5Q580 333 580 322Q557 275 544.5 236.5Q532 198 525.5 169.0Q519 140 517.5 119.5Q516 99 516 88Z" transform="translate(203.02734375, 72) scale(0.03515625, -0.03515625)" /><path d="M406 414Q393 375 373.5 325.0Q354 275 336.0 227.0Q318 179 305.5 140.0Q293 101 293 84Q293 78 299 78Q310 78 332.0 91.0Q354 104 382.5 125.0Q411 146 442.0 171.0Q473 196 501.5 220.5Q530 245 553.0 265.0Q576 285 588 295Q597 286 609.5 272.0Q622 258 633 246Q611 224 578.0 192.5Q545 161 506.5 128.0Q468 95 426.5 62.0Q385 29 345.5 3.0Q306 -23 272.0 -39.0Q238 -55 215 -55Q200 -55 177.0 -44.5Q154 -34 133.0 -18.5Q112 -3 97.0 16.0Q82 35 82 53Q97 120 112.0 170.0Q127 220 140.0 255.5Q153 291 163.0 313.0Q173 335 178 346Q166 351 155.0 357.0Q144 363 133 369Q117 352 97.5 333.0Q78 314 58.0 295.0Q38 276 18.0 258.0Q-2 240 -18 225L-66 274Q-40 299 -3.5 334.5Q33 370 68 406Q43 421 23.0 434.5Q3 448 -11 459Q-28 471 -41 481Q-47 484 -47 494Q-47 505 -38.5 525.5Q-30 546 -17.0 569.5Q-4 593 11.0 617.5Q26 642 40.0 662.0Q54 682 64.5 694.5Q75 707 78 707Q80 707 91.5 702.0Q103 697 116.0 690.5Q129 684 140.0 676.0Q151 668 154 662Q155 657 156.0 641.0Q157 625 158 602Q197 582 238.0 556.5Q279 531 313 508Q353 482 389 455Q402 447 405.5 435.0Q409 423 406 414Z" transform="translate(232.76953125, 72) scale(0.03515625, -0.03515625)" /></g></svg>
